X:1
T:Title
%%score { ( 1 3 5 ) | ( 2 4 ) }
L:1/8
M:4/2
K:Eb
V:1 treble nm="Grand Piano"
V:3 treble 
V:5 treble 
V:2 bass 
V:4 bass 
V:1
 z8 z4[Q:1/4=216] B4 | B4 [AB]4 [GB]4 [Ee]4 | [Fd]4 [Gc]4 [B,FB]4 [B,DA]4 | %3
 [B,EG]4 [=B,FG]4 [CEG]4 [CEc]4 |[M:6/4] [DB]4 [DA]2- [DA]2 G4 |[M:2/4] [Ec]4 | %6
[M:8/4] [FA]4 [FB]4 [EG]4 [Ec]4 | =B4 [Gd]4 [Gc]4 [Ge]4 | [Fd]4 [Gc]4 [B,FB]4 [B,DB]4 | %9
[M:6/4] [CFB]4 [CF=A]2- [CFA]2 [B,DB]4 |[M:2/4] [B,EG]4 |[M:8/4] [B,G]6 F2 E4 E4 | A8 z8 | B8 z8 | %14
 [A,G]6 F2 E8 |] %15
V:2
 z8 z4 [E,G,E]4 | [G,B,E]4 [F,D]4 [E,E]4 [G,B,]4 | [F,A,]4 [E,G,]4 D,4 B,,4 | E,4 D,4 C,4 A,,4 | %4
[M:6/4] [B,,F,]4 [B,,F,]2- [B,,F,]2 [E,B,]4 |[M:2/4] [C,G,]4 | %6
[M:8/4] [F,A,]4 [D,F,]4 [E,G,]4 [C,G,]4 | [G,D]4 [F,=B,]4 [E,C]4 [C,C]4 | [F,A,]4 [E,G,]4 D,4 G,4 | %9
[M:6/4] F,4 F,2- F,2 B,,4 |[M:2/4] E,4 |[M:8/4] B,,4 z2 A,2 [C,G,]4 [C,G,C]4 | %12
 .[F,A,C]4 [E,B,]4 [B,,B,]4 [B,D]4 | [G,B,E]4 [D,B,]4 [E,B,E]4 [G,B,]4 | B,,4 z2 A,2 [E,G,]8 |] %15
V:3
 x16 | x16 | x16 | x16 |[M:6/4] x12 |[M:2/4] x4 |[M:8/4] x16 | x16 | x16 |[M:6/4] x12 |[M:2/4] x4 | %11
[M:8/4] D4 D4 z8 | z4 E4 z4 F4 | z4 z2 A2 G4 E4 | D4 D4 z8 |] %15
V:4
 x16 | x16 | x16 | x16 |[M:6/4] x12 |[M:2/4] x4 |[M:8/4] x16 | x16 | x16 |[M:6/4] x12 |[M:2/4] x4 | %11
[M:8/4] z4 B,,4 z8 | x16 | x16 | z4 B,,4 z8 |] %15
V:5
 x16 | x16 | x16 | x16 |[M:6/4] x12 |[M:2/4] x4 |[M:8/4] x16 | x16 | x16 |[M:6/4] x12 |[M:2/4] x4 | %11
[M:8/4] x16 | z2 D2 z2 G2 [DF]4 z2 A,2 | z4 F4 z8 | x16 |] %15

